icons/op-delta-triangle-24.svg

<svg width="24" height="24" viewBox="0 0 24 24" fill="none" xmlns="http://www.w3.org/2000/svg">
<path d="M11.4163 9.77252C11.6817 9.31208 12.3183 9.31208 12.5837 9.77252L15.8214 15.3896C16.0963 15.8666 15.769 16.4757 15.2377 16.4757H8.76229C8.231 16.4757 7.90366 15.8666 8.17862 15.3896L11.4163 9.77252ZM13.1569 5.67281C12.6226 4.77573 11.3774 4.77573 10.8431 5.67281L4.20955 16.8098C3.64164 17.7632 4.2949 19 5.36643 19H18.6336C19.7051 19 20.3584 17.7632 19.7904 16.8098L13.1569 5.67281Z" fill="black"/>
</svg>

<svg xmlns="http://www.w3.org/2000/svg" width="24" height="24" viewBox="0 0 24 24"><path d="M11.416 9.773a.666.666 0 0 1 1.168 0l3.237 5.617c.275.477-.052 1.086-.583 1.086H8.762c-.531 0-.858-.609-.583-1.086l3.237-5.617Zm1.741-4.1a1.331 1.331 0 0 0-2.314 0L4.21 16.81c-.568.953.085 2.19 1.156 2.19h13.268c1.071 0 1.724-1.237 1.156-2.19L13.157 5.673Z"/></svg>
